X:1
T: Miss Drumbreck
C:
R:Reel
Q: 232
K:Bb
M:4/4
L:1/8
|:f|ed cB B2 df|gf df ga bf|ed cB B2 dB|cA FA cd ef|
ed cB B2 df|gf df gf ga|b2 bf ed cB|AF cF dF cF|
B2 df bf df|bf df bf dB|F1/2F1/2F Ac fg =eg|fg =eg fc AF|
B2 df bf df|bf df bf dB|Ge Fd Ec DB|1FG AB cd e:|2FG AF B3||
